X: 11547
T: Edenderry, The
R: reel
M: 4/4
K: Gmajor
|:B2 AG BGGA|B2 AG Bded|B2 AG BG ~G2|AcBG AGEG:|
~g3 a gede|gabg agab|~g3 a gedB|A2 BG AGEG|
~g3 a gede|gabg a2 ga|bgab gedB|A2 BG AGEG||

